X:1
C:Beethoven
%%score { 1 | ( 2 3 ) }
L:1/8
Q:1/4=100
M:4/4
I:linebreak $
K:Gmin
V:1 treble 
V:2 bass 
V:3 bass 
L:1/4
V:1
"^Moderato slow""Bb" !2!D4"F7" C4 |"Bb" !3!F6"F" E2 |"Bb" D2"F" !2!F2"Gm" !4!!1![DB]2"C" [=Ec]2 | %3
"F" !1!F6 (^F2 |$"Eb" G4"F7" C3) (D/E/ |"Bbdim" F4"G" =B,4) |"Cm" (!3!E4"F7" DC!3!_B,A, | %7
"F7/Db" C4"Bdim" B,)(!1!D!2!F!3!B) |$ !5!d4"F7" !1!c4 |"Bb" f6 e2 |"Bb" d2"F" f2"Gm" b2"C" c'2 | %11
"F" f6 (^f2 |$"F7" g4 c3) (d/e/ |"Bb" f4"G7" =B4) |"Cm" (e4"F7" dc_BA | %15
"F7/D" c4"Bb" B2) z3/2 !1!D/ |$ !5!d4- d(!4!bag) |"D" d'4-"Gm" d'(bag) |"D7" d4-"Gm" d(bag) | %19
"C7" (f2"C#7" =e4) g>f |$"Dm" (f4"Gm" G3) d |"F" dc"B" !5!a2- (3a!4!f!2!d"C7" (3!1!c!3!BG | %22
"F" F2 z c (AcAF) |"C7" (F=E)(ED) (!1!D!3!_D)(DC) |$ C2 z2 z2 z C |"C7" (F=E)(ED) (D_D)(DC) | %26
 [A,C]8- | [A,C]6 z2 |$"Bb" !2!D4"F7" C4 |"Bb" F6"F" E2 |"Bb" D2"F" F2"Gm" [DB]2"C" [=Ec]2 | %31
"F" F6 (^F2 |$"Eb" G4"F7" C3) (D/E/ |"Bb" F4"G" =B,4) |"Cm" (E4"F7" DC_B,A, | %35
!>(!"F/B" C4"Bb" !fermata!B,4)!>)! |] %36
V:2
 z2 (F,2 A,2 !2!F,2) | !1!!4![D,B,]4 !1!A,4 | !2!B,2 [A,C]2 G,2 G,2 | [F,A,]4 !3!F,4 |$ G,4 A,4 | %5
 [D,B,]4 G,2 D,2 | [C,G,]4 F,4 | ([B,,E,]4 [B,,D,]) z z2 |$ z F,B,F, z A,CA, | z F,B,F, A,F, A,2 | %10
 z F,2 F,- F,F,=E,!1!G, | !3!A,F,A,C A,F, A,2 |$ z A,CA,- A,C A,2 | z F,B,F,- F,D,F,D, | %14
 C,G, C2 [F,E]4 | z EFE F2 z2 |$ z2 !1!D2 D2 D2 | [^F,A,D]2 [F,A,D]2 [G,B,D]2 [G,B,D]2 | %18
[K:treble] [A,C^F]2 [A,CF]2 [B,DG]2 [B,DG]2 | [CB]2 [CB]2 [^CB]2 [CB]2 |$ %20
 [DA]2 [DA]2 [B,D]2 [B,D]2 | z2 [CF]2 [CF]2 [C=E]2 |[K:bass] [F,A,]2 z2 z4 | [C,B,]4 [C,B,]4 |$ %24
 [F,A,]2 z C (A,CA,F,) | [C,B,]4 [C,B,]4 | (G,_G,)(G,F,) (F,=E,)(E,F,) | %27
!>(! (F,_G,)(G,F,) (F,=E,)(E,_E,)!>)! |$ z2 (F,2 A,2 F,2) | [D,B,]4 A,4 | B,2 [A,C]2 G,2 G,2 | %31
 [F,A,]4 F,4 |$ G,4 A,4 | [D,B,]4 G,2 D,2 | [C,G,]4 F,4 | E,4 !fermata!D,4 |] %36
V:3
 !5!B,,2 !1!!3!E,2 | x4 | x4 | x4 |$ E,4 | x4 | x4 | x4 |$ B,,2"^rd" E,2 | D,2 x2 | %10
 B,, A,, G,, C, | x4 |$ E,2 E,2 | D,2 G,,2 | x4 | B,3 x |$ x4 | x4 |[K:treble] x4 | x4 |$ x4 | x4 | %22
[K:bass] x4 | x4 |$ x4 | x4 | x4 | x4 |$ B,,2 E,2 | x4 | x4 | x4 |$ E,4 | x4 | x4 | %35
 !fermata!B,,4 |] %36

